icons/files.svg

<svg
  data-name="Layer 1"
  xmlns="http://www.w3.org/2000/svg"
  viewBox="0 0 500 500"
  width="500"
  height="500"
  fill="#ffffff"
>
  <path d="M434.1 82.7H249.8l-45.7-45.6H89.9a28.2 28.2 0 0 0-28.2 28.2v31.2H33.2A28.1 28.1 0 0 0 5 124.6V402a60.9 60.9 0 0 0 60.9 60.9h311.5a60.9 60.9 0 0 0 60.8-59.5 61 61 0 0 0 56.8-60.8v-199a60.9 60.9 0 0 0-60.9-60.9zM412.7 402a35.4 35.4 0 0 1-35.3 35.3H65.9A35.3 35.3 0 0 1 30.6 402V124.6a2.6 2.6 0 0 1 2.6-2.6h103.6l45.6 45.7h195a35.4 35.4 0 0 1 35.3 35.3zm56.7-59.4a35.4 35.4 0 0 1-31.1 35.1V203a61 61 0 0 0-60.9-60.9H193l-45.6-45.6H87.3V65.3a2.6 2.6 0 0 1 2.6-2.6h103.7l45.6 45.6h194.9a35.3 35.3 0 0 1 35.3 35.3z" />
</svg>

<svg id="Layer_1" data-name="Layer 1" xmlns="http://www.w3.org/2000/svg" viewBox="0 0 500 500">
  <path d="M434.1,82.7H249.8L204.1,37.1H89.9A28.2,28.2,0,0,0,61.7,65.3V96.5H33.2A28.1,28.1,0,0,0,5,124.6V402a60.9,60.9,0,0,0,60.9,60.9H377.4a60.9,60.9,0,0,0,60.8-59.5A61,61,0,0,0,495,342.6v-199A60.9,60.9,0,0,0,434.1,82.7ZM412.7,402a35.4,35.4,0,0,1-35.3,35.3H65.9A35.3,35.3,0,0,1,30.6,402V124.6a2.6,2.6,0,0,1,2.6-2.6H136.8l45.6,45.7h195A35.4,35.4,0,0,1,412.7,203Zm56.7-59.4a35.4,35.4,0,0,1-31.1,35.1V203a61,61,0,0,0-60.9-60.9H193L147.4,96.5H87.3V65.3a2.6,2.6,0,0,1,2.6-2.6H193.6l45.6,45.6H434.1a35.3,35.3,0,0,1,35.3,35.3Z"/>
</svg>
